@stellar/design-system/src/assets/logos/stellar.svg

<svg width="96" height="24" viewBox="0 0 96 24" fill="currentColor" xmlns="http://www.w3.org/2000/svg">
<g clip-path="url(#clip0_1140_1891)">
<path d="M28.3657 6.00193V8.44538L27.3336 8.97104C26.5497 9.3714 26.0828 10.2031 26.1491 11.0809C26.1719 11.3857 26.1839 11.6941 26.1839 12.0026C26.1825 16.514 23.651 20.6436 19.6314 22.6918C15.6117 24.7401 10.783 24.3609 7.13224 21.7104L9.25163 20.6303L9.37163 20.5667C12.4132 22.2721 16.1308 22.2376 19.1403 20.476C22.1497 18.7145 23.9999 15.4897 24.0021 12.0026C24.002 11.5708 23.9739 11.1394 23.9181 10.7112L2.34375e-05 22.8985V20.4491L28.3657 6.00193ZM82.7509 7.66051C86.2696 7.66051 87.7613 9.26748 87.7373 12.833L87.7145 15.723C87.6905 17.84 87.7841 19.2609 88.0397 20.4527H85.8963C85.8058 19.8822 85.7512 19.3066 85.7331 18.7293C84.9651 20.0362 83.6834 20.7563 81.4464 20.7563C79.093 20.7563 77.1356 19.4506 77.1356 17.1439C77.1356 14.1796 80.4911 13.2999 85.6167 12.7395V12.437C85.6167 10.1304 84.359 9.38511 82.7737 9.38511C81.0035 9.38511 80.0015 10.3176 79.9079 11.8778H77.7177C77.9037 9.17509 80.3279 7.66053 82.7509 7.66053L82.7509 7.66051ZM62.0923 7.70373C65.9362 7.70373 68.1972 10.8961 67.9404 14.8805H58.2939C58.3635 17.5832 60.3209 18.8877 62.1618 18.8877C64.0268 18.8877 65.0517 18.0488 65.587 16.8139H67.7771C67.2179 18.9585 65.2149 20.7527 62.1618 20.7527C58.2003 20.7527 56.0101 17.9096 56.0101 14.2048C56.0101 10.224 58.6672 7.70373 62.0923 7.70373ZM42.0853 3.25245C45.1336 3.25245 47.817 4.6254 48.4939 7.86575H46.1861C45.6268 5.93234 43.6719 5.25666 41.9917 5.25666C40.6836 5.25666 38.4034 5.83873 38.4034 7.72653C38.4034 9.21828 39.5735 9.96237 41.1636 10.3128L43.115 10.7557C45.7024 11.3149 48.8011 12.2942 48.8011 15.6954C48.8011 18.9813 45.73 20.7527 42.3697 20.7527C38.3854 20.7527 35.8688 18.5673 35.4259 15.207H37.7613C38.2042 17.5364 39.7883 18.7485 42.4213 18.7485C44.938 18.7485 46.3589 17.5856 46.3589 15.9054C46.3589 14.1112 44.8444 13.4128 42.7238 12.9231L40.6176 12.4802C38.287 11.9678 35.9804 10.6621 35.9804 7.86575C35.9804 4.62781 39.3587 3.25245 42.0853 3.25245ZM53.3543 4.76701V7.91253H55.7305V9.6143H53.3543V17.0479C53.3543 18.3524 53.4467 18.6789 54.6588 18.6789H55.7305V20.449H54.1932C51.793 20.449 51.2337 19.9138 51.2337 17.3035V9.6143H49.2523V7.91253H51.2337V4.76701H53.3543ZM95.3712 7.84292C95.581 7.83995 95.7909 7.84756 96 7.86573V10.1316C95.607 10.0694 95.2098 10.0381 94.8119 10.038C92.8546 10.038 91.8753 11.0821 91.8753 13.8784V20.4491H89.7547V7.91253H91.8297V10.1028C92.4585 8.68302 93.7162 7.91253 95.3712 7.84292ZM71.4879 3.54648V20.4491H69.3673V3.54648H71.4879ZM75.7279 3.54648V20.4491H73.6073V3.54648H75.7279ZM85.7799 14.4172C81.9348 14.7905 79.489 15.3725 79.489 17.0971C79.489 18.2865 80.3975 19.0785 81.912 19.0785C83.8934 19.0785 85.7799 18.1688 85.7799 15.2105V14.4172ZM8.73141 1.30969C12.7511 -0.739938 17.5807 -0.361704 21.2323 2.28873L18.9857 3.43365C15.9449 1.73534 12.2322 1.7738 9.22727 3.53478C6.22231 5.29576 4.37419 8.516 4.36959 11.999C4.36976 12.428 4.39784 12.8565 4.45359 13.2819L28.3657 1.09819V3.54884L0 18.0032V15.5513L1.0309 15.0256C1.81547 14.6259 2.28305 13.7939 2.2166 12.9158C2.1934 12.6126 2.1818 12.3082 2.1818 12.0025C2.18133 7.4904 4.71171 3.3593 8.73138 1.30967L8.73141 1.30969ZM62.0923 9.52072C60.2273 9.52072 58.504 10.542 58.3167 13.0623H65.7034C65.6338 11.2921 64.3521 9.52072 62.0923 9.52072Z" />
</g>
<defs>
<clipPath id="clip0_1140_1891">
<rect width="96" height="24" fill="white"/>
</clipPath>
</defs>
</svg>

<svg xmlns="http://www.w3.org/2000/svg" width="96" height="24" fill="currentColor"><g clip-path="url(#a)"><path d="M28.366 6.002v2.443l-1.032.526a2.184 2.184 0 0 0-1.185 2.11A12.001 12.001 0 0 1 7.132 21.71l2.12-1.08.12-.064a9.825 9.825 0 0 0 14.546-9.856L0 22.898V20.45L28.366 6.002ZM82.75 7.66c3.519 0 5.01 1.606 4.986 5.172l-.022 2.89c-.025 2.117.07 3.538.325 4.73h-2.144a13.77 13.77 0 0 1-.163-1.724c-.768 1.307-2.05 2.027-4.287 2.027-2.353 0-4.31-1.305-4.31-3.612 0-2.964 3.355-3.844 8.48-4.404v-.303c0-2.307-1.257-3.052-2.842-3.052-1.77 0-2.773.933-2.866 2.493h-2.19c.186-2.703 2.61-4.217 5.033-4.217Zm-20.659.043c3.844 0 6.105 3.192 5.848 7.176h-9.646c.07 2.703 2.027 4.008 3.868 4.008 1.865 0 2.89-.84 3.425-2.074h2.19c-.56 2.145-2.562 3.939-5.615 3.939-3.962 0-6.152-2.843-6.152-6.548 0-3.981 2.657-6.501 6.082-6.501ZM42.085 3.252c3.049 0 5.732 1.373 6.409 4.614h-2.308c-.56-1.934-2.514-2.61-4.194-2.61-1.308 0-3.589.583-3.589 2.47 0 1.492 1.17 2.236 2.76 2.587l1.952.443c2.587.559 5.686 1.538 5.686 4.94 0 3.285-3.071 5.057-6.431 5.057-3.985 0-6.501-2.186-6.944-5.546h2.335c.443 2.33 2.027 3.541 4.66 3.541 2.517 0 3.938-1.162 3.938-2.843 0-1.794-1.515-2.492-3.635-2.982l-2.106-.443c-2.331-.512-4.638-1.818-4.638-4.614 0-3.238 3.379-4.614 6.105-4.614Zm11.27 1.515v3.146h2.376v1.701h-2.377v7.434c0 1.304.093 1.63 1.305 1.63h1.072v1.771h-1.538c-2.4 0-2.96-.535-2.96-3.146V9.614h-1.98V7.913h1.98V4.767h2.121ZM95.37 7.843c.21-.003.42.005.629.023v2.266a7.612 7.612 0 0 0-1.188-.094c-1.957 0-2.937 1.044-2.937 3.84v6.571h-2.12V7.913h2.075v2.19c.629-1.42 1.886-2.19 3.541-2.26ZM71.488 3.546V20.45h-2.12V3.546h2.12Zm4.24 0V20.45h-2.12V3.546h2.12ZM85.78 14.417c-3.845.373-6.291.956-6.291 2.68 0 1.19.908 1.981 2.423 1.981 1.981 0 3.868-.91 3.868-3.867v-.794ZM8.73 1.31a12 12 0 0 1 12.501.979l-2.246 1.145a9.825 9.825 0 0 0-14.532 9.848L28.366 1.098v2.45L0 18.004v-2.452l1.03-.525a2.183 2.183 0 0 0 1.187-2.11A12.001 12.001 0 0 1 8.732 1.31Zm53.361 8.21c-1.865 0-3.588 1.022-3.775 3.542h7.386c-.07-1.77-1.35-3.541-3.61-3.541Z"/></g><defs><clipPath id="a"><path d="M0 0h96v24H0z"/></clipPath></defs></svg>
